X: 629
T:Munster Buttermilk
T:Siamsa Mhuilte Farannain
T:Roosky Jig, The
M:6/8
L:1/8
S:from Mike Rafferty
R:Jig
N:Posted to the woodenflute mailing list February 2003
Z:Tom Madden
K:G
d | g2g age | d2B BAB | d2B BAB | dBG GBd|
~g3 age | d2B BAB | dBG GAB | ABA G2 :||
B | d2e g2a | bc'b bag | a3 age | ~g3 age |
d2e g2a | bc'b bag | age deg | aba g2 :||

